svg/faucet_variant.svg

<svg xmlns="http://www.w3.org/2000/svg" viewBox="0 0 24 24"><path d="M21 21H3c0-1.1.9-2 2-2h14c1.11 0 2 .89 2 2M19 7c0-1.61-1.07-4-4-4s-4 2.39-4 4v11h2V7c0-.46.17-2 2-2s2 1.54 2 2h-.5v2h3V7zM7 12c-.55 0-1 .45-1 1v1H3v1h3v3h2v-5c0-.55-.45-1-1-1m14 2h-3v-1c0-.55-.45-1-1-1s-1 .45-1 1v5h2v-3h3z"/></svg>

<svg xmlns="http://www.w3.org/2000/svg" id="mdi-faucet-variant" viewBox="0 0 24 24"><path d="M21 21H3C3 19.9 3.9 19 5 19H19C20.11 19 21 19.89 21 21M19 7C19 5.39 17.93 3 15 3S11 5.39 11 7V18H13V7C13 6.54 13.17 5 15 5S17 6.54 17 7H16.5V9H19.5V7H19M7 12C6.45 12 6 12.45 6 13V14H3V15H6V18H8V13C8 12.45 7.55 12 7 12M21 14H18V13C18 12.45 17.55 12 17 12S16 12.45 16 13V18H18V15H21V14Z" /></svg>
